!!! OTL: Berkowitz606
!!! Chapter: 1
!!! Section: V
!!! Page: 154
!!! Mode: 
!!! Encoder: AR
**kern
*staff1
=1-
!!pagebreak:original
*clefF4
*k[]
*C:
*M6/8
4G\
8G\
8G\L
8F\
8G\J
=2
4B-\
8G-\
8r
8E\L
8A\J
=3
4Gn\
8BB-/
4G\
8r
=4
4F#\
8C/
8r
4AA/
=5
4C/
8BB-/
8AA/
4C#/
=6
4.B-\
4G\
8r
=7
4B-\
8A-\
4.C/
=8
!!linebreak:original
8B-\L
8An\
8B-\J
4G\
8BBn/
=9
8r
8D-/L
8BB-/J
4E-\
8E-\
=10
4.E-\
4.r
=11
4BB/
8G\
4.F\
=12
4B\
8G\
4.r
=13
4E-\
8c\
4.c\
=14
4.B\
4.A\
=15
2.C#/
==
*-
